X: 2055
T: New Mown Meadow, The
B: sean kenan irish music
M:4/4
L:1/8
R: reel
Q: 1/4=115
K:Edor
V:1 
|:"Em"BEED "A"E2FA|"Bm"Becd "D"BAFA|"Em"BEED "Bm"FADF|"D"(3ABA BF AFDF|
"Em"BEED "A"EFA2|"Bm"Becd "D"BAFA|"Bm"dfdB "A"cecB| "F#m"AcBA "A"FAE2:|
|:"A"e2ce "F#m"fecf|"A"efec "Bm"BAFA|"A"(3efe ce "F#m"fecB|"A"AcBA "F#m"FAE2|
"A"(3efe ce "F#m"fecf|"A"efec "F#m"BABc| "Bm"dfdB "A"cecB| "F#m"AcBA "A"FAE2:|
% abcbook-tune_id 62ba8ab0562e9b60990709b9


% abcbook-boost 0
% abcbook-tablature 
% abcbook-transpose 
% abcbook-lastupdated 1666681666539
% abcbook-soundfonts 
% abcbook-repeats 1
% Rhythm Reel
% Titles One title
% Transcriptions Only 1 transcription
% Movement Has lots of stepwise movement
% Movement Has some stepwise movement
% Mode major
% Key D
% Time_signature 4/4
% Text Has history text
% Has_accompaniment_chords No chords

